assets/img/braze_icons/settings-01-braze-purple-dark.svg

<svg fill="none" height="48" viewBox="0 0 48 48" width="48" xmlns="http://www.w3.org/2000/svg"><path clip-rule="evenodd" d="m38.572 31.9212c-.1176-.6488-.0382-1.318.228-1.9212.2535-.5915.6745-1.096 1.2111-1.4514.5365-.3553 1.1653-.546 1.8089-.5486h.18c1.0609 0 2.0783-.4214 2.8284-1.1716.7502-.7501 1.1716-1.7675 1.1716-2.8284s-.4214-2.0783-1.1716-2.8284c-.7501-.7502-1.7675-1.1716-2.8284-1.1716h-.34c-.6436-.0026-1.2724-.1933-1.8089-.5486-.5366-.3554-.9576-.8599-1.2111-1.4514v-.16c-.2662-.6032-.3456-1.2724-.228-1.9212s.4269-1.2474.888-1.7188l.12-.12c.3719-.3715.6669-.8126.8682-1.2982s.3049-1.0061.3049-1.5318-.1036-1.0462-.3049-1.53176c-.2013-.48559-.4963-.92675-.8682-1.29824-.3715-.37191-.8126-.66694-1.2982-.86824s-1.0061-.30491-1.5318-.30491-1.0462.10361-1.5318.30491-.9267.49633-1.2982.86824l-.12.12c-.4714.46107-1.07.77037-1.7188.88801s-1.318.03822-1.9212-.22801c-.5915-.25353-1.096-.67449-1.4514-1.21107-.3553-.53658-.546-1.16536-.5486-1.80893v-.18c0-1.06087-.4214-2.07828-1.1716-2.82843-.7501-.75014-1.7675-1.17157-2.8284-1.17157s-2.0783.42143-2.8284 1.17157c-.7502.75015-1.1716 1.76756-1.1716 2.82843v.34c-.0026.64357-.1933 1.27235-.5486 1.80893-.3554.53658-.8599.95754-1.4514 1.21107h-.16c-.6032.26623-1.2724.34565-1.9212.22801s-1.2474-.42694-1.7188-.88801l-.12-.12c-.3715-.37191-.8126-.66694-1.2982-.86824s-1.0061-.30491-1.5318-.30491-1.0462.10361-1.53176.30491c-.48559.2013-.92675.49633-1.29824.86824-.37191.37149-.66694.81265-.86824 1.29824-.2013.48556-.30491 1.00606-.30491 1.53176s.10361 1.0462.30491 1.5318.49633.9267.86824 1.2982l.12.12c.46107.4714.77037 1.07.88801 1.7188s.03822 1.318-.22801 1.9212c-.22857.6215-.63881 1.1598-1.1774 1.545s-1.18061.5995-1.8426.615h-.18c-1.06087 0-2.07828.4214-2.82843 1.1716-.75014.7501-1.17157 1.7675-1.17157 2.8284s.42143 2.0783 1.17157 2.8284c.75015.7502 1.76756 1.1716 2.82843 1.1716h.34c.64357.0026 1.27235.1933 1.80893.5486.53658.3554.95754.8599 1.21107 1.4514.26623.6032.34565 1.2724.22801 1.9212s-.42694 1.2474-.88801 1.7188l-.12.12c-.37191.3715-.66694.8126-.86824 1.2982s-.30491 1.0061-.30491 1.5318.10361 1.0462.30491 1.5318.49633.9267.86824 1.2982c.37149.3719.81265.6669 1.29824.8682.48556.2013 1.00606.3049 1.53176.3049s1.0462-.1036 1.5318-.3049.9267-.4963 1.2982-.8682l.12-.12c.4714-.4611 1.07-.7704 1.7188-.888s1.318-.0382 1.9212.228c.6215.2286 1.1598.6388 1.545 1.1774s.5995 1.1806.615 1.8426v.18c0 1.0609.4214 2.0783 1.1716 2.8284.7501.7502 1.7675 1.1716 2.8284 1.1716s2.0783-.4214 2.8284-1.1716c.7502-.7501 1.1716-1.7675 1.1716-2.8284v-.34c.0026-.6436.1933-1.2724.5486-1.8089.3554-.5366.8599-.9576 1.4514-1.2111.6032-.2662 1.2724-.3456 1.9212-.228s1.2474.4269 1.7188.888l.12.12c.3715.3719.8126.6669 1.2982.8682s1.0061.3049 1.5318.3049 1.0462-.1036 1.5318-.3049.9267-.4963 1.2982-.8682c.3719-.3715.6669-.8126.8682-1.2982s.3049-1.0061.3049-1.5318-.1036-1.0462-.3049-1.5318-.4963-.9267-.8682-1.2982l-.12-.12c-.4611-.4714-.7704-1.07-.888-1.7188zm-8.572-7.9212c0 3.3137-2.6863 6-6 6s-6-2.6863-6-6 2.6863-6 6-6 6 2.6863 6 6z" fill="#300266" fill-rule="evenodd"/></svg>

<svg width="48" height="48" viewBox="0 0 48 48" fill="none" xmlns="http://www.w3.org/2000/svg">
<path fill-rule="evenodd" clip-rule="evenodd" d="M38.572 31.9212C38.4544 31.2724 38.5338 30.6032 38.8 30C39.0535 29.4085 39.4745 28.904 40.0111 28.5486C40.5476 28.1933 41.1764 28.0026 41.82 28H42C43.0609 28 44.0783 27.5786 44.8284 26.8284C45.5786 26.0783 46 25.0609 46 24C46 22.9391 45.5786 21.9217 44.8284 21.1716C44.0783 20.4214 43.0609 20 42 20H41.66C41.0164 19.9974 40.3876 19.8067 39.8511 19.4514C39.3145 19.096 38.8935 18.5915 38.64 18V17.84C38.3738 17.2368 38.2944 16.5676 38.412 15.9188C38.5296 15.27 38.8389 14.6714 39.3 14.2L39.42 14.08C39.7919 13.7085 40.0869 13.2674 40.2882 12.7818C40.4895 12.2962 40.5931 11.7757 40.5931 11.25C40.5931 10.7243 40.4895 10.2038 40.2882 9.71824C40.0869 9.23265 39.7919 8.79149 39.42 8.42C39.0485 8.04809 38.6074 7.75306 38.1218 7.55176C37.6362 7.35046 37.1157 7.24685 36.59 7.24685C36.0643 7.24685 35.5438 7.35046 35.0582 7.55176C34.5726 7.75306 34.1315 8.04809 33.76 8.42L33.64 8.54C33.1686 9.00107 32.57 9.31037 31.9212 9.42801C31.2724 9.54565 30.6032 9.46623 30 9.2C29.4085 8.94647 28.904 8.52551 28.5486 7.98893C28.1933 7.45235 28.0026 6.82357 28 6.18V6C28 4.93913 27.5786 3.92172 26.8284 3.17157C26.0783 2.42143 25.0609 2 24 2C22.9391 2 21.9217 2.42143 21.1716 3.17157C20.4214 3.92172 20 4.93913 20 6V6.34C19.9974 6.98357 19.8067 7.61235 19.4514 8.14893C19.096 8.68551 18.5915 9.10647 18 9.36H17.84C17.2368 9.62623 16.5676 9.70565 15.9188 9.58801C15.27 9.47037 14.6714 9.16107 14.2 8.7L14.08 8.58C13.7085 8.20809 13.2674 7.91306 12.7818 7.71176C12.2962 7.51046 11.7757 7.40685 11.25 7.40685C10.7243 7.40685 10.2038 7.51046 9.71824 7.71176C9.23265 7.91306 8.79149 8.20809 8.42 8.58C8.04809 8.95149 7.75306 9.39265 7.55176 9.87824C7.35046 10.3638 7.24685 10.8843 7.24685 11.41C7.24685 11.9357 7.35046 12.4562 7.55176 12.9418C7.75306 13.4274 8.04809 13.8685 8.42 14.24L8.54 14.36C9.00107 14.8314 9.31037 15.43 9.42801 16.0788C9.54565 16.7276 9.46623 17.3968 9.2 18C8.97143 18.6215 8.56119 19.1598 8.0226 19.545C7.48401 19.9302 6.84199 20.1445 6.18 20.16H6C4.93913 20.16 3.92172 20.5814 3.17157 21.3316C2.42143 22.0817 2 23.0991 2 24.16C2 25.2209 2.42143 26.2383 3.17157 26.9884C3.92172 27.7386 4.93913 28.16 6 28.16H6.34C6.98357 28.1626 7.61235 28.3533 8.14893 28.7086C8.68551 29.064 9.10647 29.5685 9.36 30.16C9.62623 30.7632 9.70565 31.4324 9.58801 32.0812C9.47037 32.73 9.16107 33.3286 8.7 33.8L8.58 33.92C8.20809 34.2915 7.91306 34.7326 7.71176 35.2182C7.51046 35.7038 7.40685 36.2243 7.40685 36.75C7.40685 37.2757 7.51046 37.7962 7.71176 38.2818C7.91306 38.7674 8.20809 39.2085 8.58 39.58C8.95149 39.9519 9.39265 40.2469 9.87824 40.4482C10.3638 40.6495 10.8843 40.7531 11.41 40.7531C11.9357 40.7531 12.4562 40.6495 12.9418 40.4482C13.4274 40.2469 13.8685 39.9519 14.24 39.58L14.36 39.46C14.8314 38.9989 15.43 38.6896 16.0788 38.572C16.7276 38.4544 17.3968 38.5338 18 38.8C18.6215 39.0286 19.1598 39.4388 19.545 39.9774C19.9302 40.516 20.1445 41.158 20.16 41.82V42C20.16 43.0609 20.5814 44.0783 21.3316 44.8284C22.0817 45.5786 23.0991 46 24.16 46C25.2209 46 26.2383 45.5786 26.9884 44.8284C27.7386 44.0783 28.16 43.0609 28.16 42V41.66C28.1626 41.0164 28.3533 40.3876 28.7086 39.8511C29.064 39.3145 29.5685 38.8935 30.16 38.64C30.7632 38.3738 31.4324 38.2944 32.0812 38.412C32.73 38.5296 33.3286 38.8389 33.8 39.3L33.92 39.42C34.2915 39.7919 34.7326 40.0869 35.2182 40.2882C35.7038 40.4895 36.2243 40.5931 36.75 40.5931C37.2757 40.5931 37.7962 40.4895 38.2818 40.2882C38.7674 40.0869 39.2085 39.7919 39.58 39.42C39.9519 39.0485 40.2469 38.6074 40.4482 38.1218C40.6495 37.6362 40.7531 37.1157 40.7531 36.59C40.7531 36.0643 40.6495 35.5438 40.4482 35.0582C40.2469 34.5726 39.9519 34.1315 39.58 33.76L39.46 33.64C38.9989 33.1686 38.6896 32.57 38.572 31.9212ZM30 24C30 27.3137 27.3137 30 24 30C20.6863 30 18 27.3137 18 24C18 20.6863 20.6863 18 24 18C27.3137 18 30 20.6863 30 24Z" fill="#300266"/>
</svg>
